packages/components/icon/src/assets/icons/radio.svg

<svg width="24" height="24" viewBox="0 0 24 24" fill="none" xmlns="http://www.w3.org/2000/svg">
<path fill-rule="evenodd" clip-rule="evenodd" d="M12.1136 20.2273C10.6384 20.2273 9.27893 19.8657 8.03512 19.1426C6.79132 18.4194 5.80785 17.436 5.08471 16.1921C4.36157 14.9483 4 13.5889 4 12.1136C4 10.6384 4.36157 9.27893 5.08471 8.03512C5.80785 6.79132 6.79132 5.80785 8.03512 5.08471C9.27893 4.36157 10.6384 4 12.1136 4C13.5889 4 14.9483 4.36157 16.1921 5.08471C17.436 5.80785 18.4194 6.79132 19.1426 8.03512C19.8657 9.27893 20.2273 10.6384 20.2273 12.1136C20.2273 13.5889 19.8657 14.9483 19.1426 16.1921C18.4194 17.436 17.436 18.4194 16.1921 19.1426C14.9483 19.8657 13.5889 20.2273 12.1136 20.2273ZM12.1136 19.2727C13.4153 19.2727 14.6121 18.9509 15.704 18.3073C16.796 17.6637 17.6637 16.796 18.3073 15.704C18.9509 14.6121 19.2727 13.4153 19.2727 12.1136C19.2727 10.812 18.9509 9.61519 18.3073 8.52324C17.6637 7.4313 16.796 6.56354 15.704 5.91994C14.6121 5.27634 13.4153 4.95455 12.1136 4.95455C10.812 4.95455 9.61519 5.27634 8.52324 5.91994C7.4313 6.56354 6.56354 7.4313 5.91994 8.52324C5.27634 9.61519 4.95455 10.812 4.95455 12.1136C4.95455 13.4153 5.27634 14.6121 5.91994 15.704C6.56354 16.796 7.4313 17.6637 8.52324 18.3073C9.61519 18.9509 10.812 19.2727 12.1136 19.2727Z" fill="currentColor"/>
</svg>

<svg viewBox="0 0 24 24" fill="none" xmlns="http://www.w3.org/2000/svg"><path fill-rule="evenodd" clip-rule="evenodd" d="M12.114 20.227a7.971 7.971 0 0 1-4.079-1.084 8.02 8.02 0 0 1-2.95-2.95A7.97 7.97 0 0 1 4 12.112a7.97 7.97 0 0 1 1.085-4.078 8.02 8.02 0 0 1 2.95-2.95A7.97 7.97 0 0 1 12.114 4a7.97 7.97 0 0 1 4.078 1.085 8.02 8.02 0 0 1 2.95 2.95 7.971 7.971 0 0 1 1.085 4.079 7.971 7.971 0 0 1-1.084 4.078 8.02 8.02 0 0 1-2.95 2.95 7.971 7.971 0 0 1-4.08 1.085Zm0-.954a6.942 6.942 0 0 0 3.59-.966 7.244 7.244 0 0 0 2.603-2.603 6.942 6.942 0 0 0 .966-3.59 6.943 6.943 0 0 0-.966-3.59 7.244 7.244 0 0 0-2.603-2.604 6.942 6.942 0 0 0-3.59-.965 6.943 6.943 0 0 0-3.59.965A7.245 7.245 0 0 0 5.92 8.523a6.943 6.943 0 0 0-.965 3.59c0 1.302.321 2.5.965 3.591a7.244 7.244 0 0 0 2.603 2.603 6.943 6.943 0 0 0 3.59.966Z" fill="currentColor"/></svg>
